X:2036
L:1/8
M:9/8
K:Emin
"^A""Em" E2 B2 Bc dcB |"Em" B2"Am" A2 AB"Em" G2 F |"Em" EF GA"Am" A2 A2 B |"Bm" GF FE"Em" EF GAB | 
"Em" E2 B2"D" Bc dcB |"G" B2"D" A2 AB"G" G2 F |"A" EF GA A2 A2 B |"Bm" GF FE"Em" E2 E3 |: 
"^B""Em" EF GA"Am" A2 A2 B |"Bm" GF FE"Em" EF GAB |"A" EF GA A2 A2 B |"C" GF FE"Em" E2 E3"^Fine" :: 
"^C""Em" G4"Am" GA AGF |"Em" G2 GF"Am" EF GAF |"Em" G2 GF"Bm" EF FEF |"Em" E4 EF"D" D3 | 
"G" G4"D" GA AGF |"G" G2 GF"C" EF GAF |"Am" G2 GF"Dm" E=F FEF |"Em" E8"^D.C." :|

